img/icons/phone.svg

<svg width="18" height="19" viewBox="0 0 18 19" fill="none" xmlns="http://www.w3.org/2000/svg">
<path d="M5.82062 1.76648C5.68269 1.5021 5.43398 1.31307 5.14233 1.25096C4.85067 1.18884 4.54652 1.26013 4.31284 1.44536L1.99267 3.28451C1.70206 3.50939 1.47497 3.80508 1.33123 4.14166C1.18632 4.48097 1.13029 4.85198 1.1683 5.21882L1.16841 5.21985C1.46684 8.0713 2.56752 10.7724 4.3407 12.996L4.34969 13.0071C6.17323 15.2279 8.57797 16.8768 11.2884 17.761C11.6402 17.8764 12.0149 17.9008 12.3785 17.832C12.7417 17.7634 13.0806 17.6043 13.3658 17.3715C13.3664 17.371 13.367 17.3705 13.3676 17.37L15.6465 15.5199C15.8792 15.331 16.0149 15.0478 16.0163 14.7481C16.0176 14.4484 15.8845 14.1639 15.6535 13.9729L12.6767 11.5114C12.3397 11.2328 11.8609 11.2053 11.4944 11.4436L10.1784 12.2991C9.26747 11.7877 8.4635 11.0944 7.81492 10.2575C7.80634 10.2465 7.79752 10.2356 7.78848 10.2249C7.11514 9.42766 6.60752 8.49779 6.29633 7.49174L7.42807 6.37555C7.74086 6.06705 7.81567 5.59053 7.61246 5.20102L5.82062 1.76648Z" fill="white" stroke="#A5B4C2" stroke-width="2" stroke-linejoin="round"/>
</svg>

<svg width="18" height="19" fill="none" xmlns="http://www.w3.org/2000/svg"><path d="M5.82 1.766a1 1 0 00-1.507-.32l-2.32 1.839c-.29.224-.518.52-.662.857-.145.339-.2.71-.163 1.077h0a14.97 14.97 0 003.173 7.777l.009.011a15.003 15.003 0 006.938 4.754 2.19 2.19 0 002.078-.39l.002-.001 2.278-1.85a1 1 0 00.007-1.547l-2.976-2.462a1 1 0 00-1.183-.067l-1.316.855a7.86 7.86 0 01-2.39-2.074 7.812 7.812 0 01-1.492-2.733l1.132-1.116A1 1 0 007.612 5.2L5.821 1.766z" fill="#fff" stroke="#A5B4C2" stroke-width="2" stroke-linejoin="round"/></svg>
